X: 22317
T: La Sansonette
R: reel
M: 4/4
K: Dminor
|:A2 ^GA =GF- F2|E>GFE D4|DEFG A2 GA|c2 B2 A4|
A2 ^GA =GF- F2|E>GFE D4|DEFG A2 GF|EFGA D4:|
|:A2 FA BFAB|A/B/A FA BFAB|E2- EA BEAB|A2 EA BEAB|
[1 A2 FA BFAB|ADFA B2 AE-|EBAG FGFE|DEFE D4:|
[2 A2 DF BDFB|ADF/G/A B/c/B AE-|EBAG FGFE|DEFE D4||

